resources/icons/light/icon.svg

<?xml version="1.0" encoding="UTF-8"?>
<svg preserveAspectRatio="none" version="1.1" viewBox="0 0 800 800" width="16" height="16" xmlns="http://www.w3.org/2000/svg" xmlns:xlink="http://www.w3.org/1999/xlink">
<defs>
<g id="b">
<path d="m371.95 96.4q-6.45-13.95-18-25.7-23.9-24.2-56.9-26.05 1.25-22.2 1.75-44.65h-298.8q3.2 155.45 46.3 300.95h206.15q11.65-39.3 20.35-79.3 9 1.85 18.75 1.85 36.55 0 62.4-26.25 5.35-5.4 9.6-11.3 4.95-6.85 8.4-14.35 7.85-17.15 7.85-37.6t-7.85-37.6m-7.9 37.6q0 30.45-21.25 51.95-21.25 21.55-51.25 21.55-8.05 0-15.4-1.5 14.55-71.55 19.85-145.35 27.15 1.45 46.8 21.35 21.25 21.55 21.25 52z" fill="#F6F6F6"/>
</g>
<g id="a">
<path d="m282 63.55v-17.3l-95.05 55.05 95.05 54.75v-17.25l-65.15-37.65 65.15-37.6m111.05 2.7-10.55-10.55-33.85 33.8q-9.15 9.15-18.35 18.3l-26.45 26.55 10.6 10.55 32.6-32.65h0.05l11.65-11.65q3.4-3.4 6.9-6.85 0.15-0.1 0.25-0.25l0.7-0.7h-0.05l26.5-26.55m21.95-20v17.25l64.95 37.5-64.95 37.5v17.3l94.85-54.95-94.85-54.6z"/>
</g>
</defs>
<g transform="matrix(2.0025 0 0 2.0025 14.25 95.7)">
<use xlink:href="#b"/>
<g transform="matrix(.73097 0 0 .73097 -106.5 62.25)">
<use xlink:href="#a"/>
</g>
</g>
</svg>

<svg xmlns="http://www.w3.org/2000/svg" version="1.1" xmlns:xlink="http://www.w3.org/1999/xlink" preserveAspectRatio="none" x="0px" y="0px" width="800px" height="800px" viewBox="0 0 800 800">
<defs>
<g id="Cup_0_Layer0_0_FILL">
<path fill="#000000" stroke="none" d="
M 371.95 96.4
Q 365.5 82.45 353.95 70.7 330.05 46.5 297.05 44.65 298.3 22.45 298.8 0
L 0 0
Q 3.2 155.45 46.3 300.95
L 252.45 300.95
Q 264.1 261.65 272.8 221.65 281.8 223.5 291.55 223.5 328.1 223.5 353.95 197.25 359.3 191.85 363.55 185.95 368.5 179.1 371.95 171.6 379.8 154.45 379.8 134 379.8 113.55 371.95 96.4
M 364.05 134
Q 364.05 164.45 342.8 185.95 321.55 207.5 291.55 207.5 283.5 207.5 276.15 206 290.7 134.45 296 60.65 323.15 62.1 342.8 82 364.05 103.55 364.05 134 Z"/>
</g>

<g id="Cup_0_Layer0_1_MEMBER_0_FILL">
<path fill="#FFFFFF" stroke="none" d="
M 282 63.55
L 282 46.25 186.95 101.3 282 156.05 282 138.8 216.85 101.15 282 63.55
M 393.05 66.25
L 382.5 55.7 348.65 89.5
Q 339.5 98.65 330.3 107.8
L 303.85 134.35 314.45 144.9 347.05 112.25 347.1 112.25 358.75 100.6
Q 362.15 97.2 365.65 93.75 365.8 93.65 365.9 93.5
L 366.6 92.8 366.55 92.8 393.05 66.25
M 415 46.25
L 415 63.5 479.95 101 415 138.5 415 155.8 509.85 100.85 415 46.25 Z"/>
</g>
</defs>

<g transform="matrix( 2.00250244140625, 0, 0, 2.00250244140625, 14.25,95.7) ">
<g transform="matrix( 1, 0, 0, 1, 0,0) ">
<use xlink:href="#Cup_0_Layer0_0_FILL"/>
</g>

<g transform="matrix( 0.7309722900390625, 0, 0, 0.7309722900390625, -106.5,62.25) ">
<use xlink:href="#Cup_0_Layer0_1_MEMBER_0_FILL"/>
</g>
</g>
</svg>
